!!!COM: Bach, Johann Sebastian
!!!OTL@@DE: 50. In allen meinen Taten
!!!OTL@EN: In all my deeds
!!!SCA: 244.37
**harm	**root	**kern	**kern	**kern	**kern
*staff2	*	*staff2	*staff2	*staff1	*staff1
*Iorgan	*Iorgan	*Iorgan	*Iorgan	*Iorgan	*Iorgan
!	!	!bass	!tenor	!alto	!sprno
*	*	*clefF4	*clefF4	*clefG2	*clefG2
*k[f#c#g#d#]	*k[f#c#g#d#]	*k[f#c#g#d#]	*k[f#c#g#d#]	*k[f#c#g#d#]	*k[f#c#g#d#]
*met(c)	*met(c)	*met(c)	*met(c)	*met(c)	*met(c)
*E:	*E:	*E:	*E:	*E:	*E:
*M4/4	*M4/4	*M4/4	*M4/4	*M4/4	*M4/4
*MM60	*MM60	*MM60	*MM60	*MM60	*MM60
I	4FF	4E	4B	4e	4g#
=1	=1	=1	=1	=1	=1
IV	4BB-	4A	4c#	4c#	4e
viiob	4EE	8G#L	8BL	4d#	4f#
.	.	8F#J	8AJ	.	.
I	2FF	4.E	4.G#	8eL	(8g#L
.	.	.	.	8f#J	8aJ
.	.	.	.	4g#	4b)
.	.	8D#	8F#	.	.
=2	=2	=2	=2	=2	=2
IV7b	4BB-	4C#	4E	4g#	2a
V7b	4CC	4D#	4B	4f#	.
I;	4FF;	4E;	4B;	4e;	4g#;
I	4FF	8EL	4B	4e	8g#L
.	.	8F#J	.	.	8aJ
=3	=3	=3	=3	=3	=3
Ib	4FF	4G#	4B	8eL	4b
.	.	.	.	8d#J	.
Ib	4FF	8GG#L	4B	8eL	4b
.	.	8AAJ	.	8f#J	.
V	4CC	4BB	4B	8d#L	4f#
.	.	.	.	8c#J	.
iiib	4AA	4GG#	8BL	4B	(8g#L
.	.	.	8A#J	.	8f#J
=4	=4	=4	=4	=4	=4
viio/V	2BB	2C#	8G#L	4B	2e)
.	.	.	8F#J	.	.
.	.	.	4E	4A#	.
V;	4CC;	4BB;	4F#;	4B;	4d#;
V7	4CC	4BB	4Ay	4d#	4B
=5	=5	=5	=5	=5	=5
vi	4DD	4C#	4G#	4c#	4e
Vb	4CC	4D#	4F#	4B	4f#
I	4FF	4E	4E	4B	8g#L
.	.	.	.	.	16aL
.	.	.	.	.	16bJJ
IV	4BB-	4AA	4E	4c#	8aL
.	.	.	.	.	8g#J
=6	=6	=6	=6	=6	=6
V;	2.CC;	2.BB;	2.B;	2.d#;	2.f#;
Vb/VI	4AA	4BB#	4G#	4d#	4g#
=7	=7	=7	=7	=7	=7
!!linebreak: 2
vi	4DD	4C#	4G#	4c#	4e
Vb	4CC	4D#	4F#	4B	4f#
I	4FF	4E	8EL	4B	8g#L
.	.	.	8F#J	.	8aJ
V7b/II	4DD	4E#	4G#	4c#	4b
=8	=8	=8	=8	=8	=8
ii	2GG	4F#	8F#L	4c#	2a
.	.	.	8G#J	.	.
.	.	4FF#	8AL	4f#	.
.	.	.	8BJ	.	.
V/II;	4DD;	4C#;	4c#;	4e#;	4g#;
vi	4DD	4c#	4c#	4e	8g#L
.	.	.	.	.	8aJ
=9	=9	=9	=9	=9	=9
Ib	4FF	8G#L	8BL	4e	4b
.	.	8F#	8A	.	.
Ib	4FF	8G#	8B	4e	4b
.	.	8AJ	8c#J	.	.
V	4CC	4B	4d#	8d#L	4f#
.	.	.	.	8c#J	.
I	4FF	8EL	4e	4B	(8g#L
.	.	8D#J	.	.	8f#J
=10	=10	=10	=10	=10	=10
vi7	4DD	8C#L	8EL	4B	2e)
.	.	8BBJ	8G#J	.	.
V7c/V	4GG	4C#	8F#L	4A#	.
.	.	.	8EJ	.	.
V;	4CC;	4BB;	4F#;	4B;	4d#;
V7c	4CC	4AA	4D#	4F#	4B
=11	=11	=11	=11	=11	=11
Ib	4FF	4GG#	8EL	4B	4e
.	.	.	8BJ	.	.
ii	4GG	4FF#	8c#L	4A	4f#
.	.	.	8d#J	.	.
I	4FF	4EE	8eL	8G#L	4g#
.	.	.	8BJ	8BJ	.
IV7b	4BB-	4C#	8AL	4e	8f#L
.	.	.	8EJ	.	16g#L
.	.	.	.	.	16aJJ
=12	=12	=12	=12	=12	=12
Ic	4FF	8BBL	4.B	4e	4g#
.	.	8AAJ	.	.	.
V7	4CC	4BB	.	4d#	4f#
.	.	.	8A	.	.
I;	4FF;	4EE;	4G#;	4B;	4e;
==	==	==	==	==	==
*-	*-	*-	*-	*-	*-
!!!ENC: Craig Stuart Sapp
!!!END: 2004/12/06/
!!!ONB: Harmony and Root analysis done manually by Craig Sapp
!!chor2scor: -l 2 -s 0.6 -o %b.pmx
